X: 741
T: The Temple
P: Longways for as many as will
%R: march, reel
B: "The Compleat Country Dancing-Master" printed by John Walsh, London ca. 1740
S: 6: CCDM1 http://imslp.org/wiki/The_Compleat_Country_Dancing-Master_(Various) V.1 p.113 #163 (225)
Z: 2013 John Chambers <jc:trillian.mit.edu>
M: C|
L: 1/4
K: D
% - - - - - - - - - - - - - - - - - - - - - - - - -
[|\
d2 e2 | f>g fe | de f(e/d/) | eA AA |\
d2 e2 | f>g fe | d/e/d/e/ e>d | d4 |]
[|\
f2 g2 | a>b af | fd dA | dA FD |\
f2 g2 | a>b ag | fd d(g/f/) | d4 |]
[|\
d2 e2 | f>g fe | de f(e/d/) | eA AA |\
d2 e2 | f>g fe | d/e/d/e/ e>d | d4 |]
[|\
AF/G/ Ad | AF/G/ Ad | AF/G/ Ad | c2- c2 |\
ec/d/ ea | ec/d/ ea | e(d/c/) B>A | A4 |]
% - - - - - - - - - - - - - - - - - - - - - - - - -
%%begintext align
%% The 1st Cu. figure thro' the 2d Cu. and turn Hands above .| The 2d Cu.
%% do the same .| The 1st Man turn the 2d Wo. .| The 1st Wo. the 2d Man
%% :| Then cross over and go the Figure thro' the 2d Cu. being in the 1st
%% Cu. Place, meet and sett, and cast off ; then 1st Cu. cast off and begin again.
%%endtext
%%sep 1 8 500

%%sep 1 1 500
%%sep 1 1 500
